icons/svg/hamburger.svg

<svg width="24" height="24" viewBox="0 0 24 24" fill="none" xmlns="http://www.w3.org/2000/svg">
<path d="M12 3.72369C7.69799 3.72369 4.21053 6.77523 4.21053 10.5395H19.7895C19.7895 6.77523 16.302 3.72369 12 3.72369Z" stroke="currentColor" stroke-width="1.5" stroke-linecap="round" stroke-linejoin="round"/>
<rect x="2.75" y="10.5395" width="18.5" height="5.35526" rx="2" stroke="currentColor" stroke-width="1.5" stroke-linecap="round" stroke-linejoin="round"/>
<path d="M4.21053 15.8947H19.7895L19.5119 17.144C19.1051 18.9742 17.4819 20.2763 15.6071 20.2763H8.39289C6.5181 20.2763 4.89485 18.9742 4.48815 17.144L4.21053 15.8947Z" stroke="currentColor" stroke-width="1.5" stroke-linecap="round" stroke-linejoin="round"/>
<path d="M15.1355 13.0616L12.9737 10.5395H18.8158L16.654 13.0616C16.2549 13.5272 15.5346 13.5272 15.1355 13.0616Z" stroke="currentColor" stroke-width="1.5" stroke-linecap="round" stroke-linejoin="round"/>
</svg>

<svg xmlns="http://www.w3.org/2000/svg" width="24" height="24" fill="none" viewBox="0 0 24 24"><path stroke="currentColor" stroke-linecap="round" stroke-linejoin="round" stroke-width="1.5" d="M12 3.724c-4.302 0-7.79 3.051-7.79 6.816h15.58c0-3.765-3.488-6.816-7.79-6.816"/><rect width="18.5" height="5.355" x="2.75" y="10.54" stroke="currentColor" stroke-linecap="round" stroke-linejoin="round" stroke-width="1.5" rx="2"/><path stroke="currentColor" stroke-linecap="round" stroke-linejoin="round" stroke-width="1.5" d="M4.21 15.895h15.58l-.278 1.249a4 4 0 0 1-3.905 3.132H8.393a4 4 0 0 1-3.905-3.132zm10.926-2.833-2.162-2.522h5.842l-2.162 2.522a1 1 0 0 1-1.518 0"/></svg>
